site/public/steak.svg

<svg width="600" height="600" fill="none" xmlns="http://www.w3.org/2000/svg"><path fill="#000" d="M0 0h600v600H0z"/><path d="M470.747 209.191a87.36 87.36 0 0 0-38.939-38.938C413.337 161 389.233 161 341.006 161h-82.012c-48.138 0-72.332 0-90.803 9.253a87.223 87.223 0 0 0-38.921 38.938c-9.271 18.471-9.27 42.576-9.27 90.785 0 48.209-.001 72.332 9.27 90.802a87.223 87.223 0 0 0 38.921 38.938c18.471 9.254 42.593 9.254 90.803 9.254h82.012c48.138 0 72.331 0 90.802-9.254a87.356 87.356 0 0 0 38.939-38.938C480 372.308 480 348.203 480 299.976c0-48.227 0-72.314-9.253-90.785Z" fill="#FFCEAA"/><path d="M218.557 350.342a26.737 26.737 0 0 0-23.766-14.601h-28.044a20.535 20.535 0 0 0-19.444 14.223 20.527 20.527 0 0 0-.881 8.473c.963 9.039 2.532 15.903 5.153 21.127a62.81 62.81 0 0 0 27.813 27.813c8.807 4.421 22.286 5.883 43.056 6.365a17.152 17.152 0 0 0 15.672-24.961l-19.559-38.439ZM180.618 312.563a57.447 57.447 0 0 0 47.05-24.497l27.188-38.813a51.319 51.319 0 0 0 5.563-48.637v-.232a23.035 23.035 0 0 0-18.434-14.406c-32.253.107-51.259.909-62.58 6.597a62.152 62.152 0 0 0-27.813 27.795c-4.867 9.877-6.365 37.637-6.722 60.137a31.548 31.548 0 0 0 9.053 22.672 31.537 31.537 0 0 0 22.522 9.42l4.173-.036ZM449.702 220.356a62.562 62.562 0 0 0-27.796-27.742c-12.016-6.026-32.644-6.561-68.569-6.614-48.673 0-63.809 56-74.203 70.834l-30.578 43.663a47.303 47.303 0 0 0-3.458 48.494l22.66 44.822a36.673 36.673 0 0 0 33.109 20.165h41.416c42.789 0 66.43-.001 79.623-6.597a62.688 62.688 0 0 0 27.796-27.813c6.615-13.194 6.614-36.781 6.614-79.624 0-42.843.001-66.323-6.614-79.588Z" fill="#FF3B9A"/></svg>

<svg width="600" height="600" viewBox="0 0 600 600" fill="none" xmlns="http://www.w3.org/2000/svg">
<rect width="600" height="600" fill="black"/>
<path d="M470.747 209.191C462.305 192.354 448.646 178.695 431.808 170.253C413.337 161 389.233 161 341.006 161C331.236 161 307.916 161 300 161C292.084 161 268.728 161 258.994 161C210.856 161 186.662 161 168.191 170.253C151.354 178.69 137.7 192.35 129.27 209.191C119.999 227.662 120 251.767 120 299.976C120 348.185 119.999 372.308 129.27 390.778C137.7 407.619 151.354 421.279 168.191 429.716C186.662 438.97 210.784 438.97 258.994 438.97C268.764 438.97 292.084 438.97 300 438.97C307.916 438.97 331.272 438.97 341.006 438.97C389.144 438.97 413.337 438.97 431.808 429.716C448.646 421.274 462.305 407.616 470.747 390.778C480 372.308 480 348.203 480 299.976C480 251.749 480 227.662 470.747 209.191Z" fill="#FFCEAA"/>
<path d="M218.557 350.342C216.323 345.957 212.922 342.274 208.729 339.698C204.536 337.121 199.713 335.752 194.791 335.741H166.747C163.876 335.755 161.041 336.37 158.422 337.548C155.804 338.725 153.462 340.439 151.547 342.577C149.632 344.716 148.186 347.232 147.303 349.964C146.42 352.696 146.12 355.582 146.422 358.437C147.385 367.476 148.954 374.34 151.575 379.564C157.629 391.573 167.378 401.323 179.388 407.377C188.195 411.798 201.674 413.26 222.444 413.742C225.415 413.812 228.353 413.109 230.97 411.702C233.587 410.295 235.793 408.232 237.373 405.715C238.953 403.199 239.852 400.315 239.982 397.346C240.113 394.378 239.47 391.427 238.116 388.781L218.557 350.342Z" fill="#FF3B9A"/>
<path d="M180.618 312.563C189.852 312.562 198.95 310.335 207.14 306.071C215.33 301.806 222.371 295.63 227.668 288.066L254.856 249.253C259.761 242.25 262.839 234.134 263.81 225.64C264.782 217.146 263.616 208.545 260.419 200.616V200.384C258.913 196.555 256.409 193.2 253.167 190.666C249.925 188.133 246.064 186.514 241.985 185.978C209.732 186.085 190.726 186.887 179.405 192.575C167.37 198.586 157.611 208.339 151.592 220.37C146.725 230.247 145.227 258.007 144.87 280.507C144.797 284.698 145.56 288.862 147.114 292.754C148.668 296.647 150.983 300.191 153.923 303.179C156.863 306.167 160.369 308.539 164.236 310.156C168.103 311.774 172.254 312.604 176.445 312.599L180.618 312.563Z" fill="#FF3B9A"/>
<path d="M449.702 220.356C443.655 208.365 433.909 198.639 421.906 192.614C409.89 186.588 389.262 186.053 353.337 186C304.664 186 289.528 242 279.134 256.834L248.556 300.497C243.645 307.51 240.729 315.725 240.12 324.266C239.511 332.806 241.231 341.352 245.098 348.991L267.758 393.813C270.842 399.931 275.578 405.063 281.43 408.627C287.282 412.191 294.016 414.045 300.867 413.978H301.49C309.495 413.978 334.171 413.978 342.283 413.978C385.072 413.978 408.713 413.977 421.906 407.381C433.914 401.331 443.66 391.58 449.702 379.568C456.317 366.374 456.316 342.787 456.316 299.944C456.316 257.101 456.317 233.621 449.702 220.356Z" fill="#FF3B9A"/>
</svg>
